hero/solid/magnifying-glass-plus.svg

<svg width="24" height="24" viewBox="0 0 24 24" fill="none" xmlns="http://www.w3.org/2000/svg">
<path fill-rule="evenodd" clip-rule="evenodd" d="M10.5 3.75C6.77208 3.75 3.75 6.77208 3.75 10.5C3.75 14.2279 6.77208 17.25 10.5 17.25C12.3642 17.25 14.0506 16.4953 15.273 15.273C16.4953 14.0506 17.25 12.3642 17.25 10.5C17.25 6.77208 14.2279 3.75 10.5 3.75ZM2.25 10.5C2.25 5.94365 5.94365 2.25 10.5 2.25C15.0563 2.25 18.75 5.94365 18.75 10.5C18.75 12.5078 18.032 14.3491 16.8399 15.7793L21.5303 20.4697C21.8232 20.7626 21.8232 21.2374 21.5303 21.5303C21.2374 21.8232 20.7626 21.8232 20.4697 21.5303L15.7793 16.8399C14.3491 18.032 12.5078 18.75 10.5 18.75C5.94365 18.75 2.25 15.0563 2.25 10.5ZM10.5 6.75C10.9142 6.75 11.25 7.08579 11.25 7.5V9.75H13.5C13.9142 9.75 14.25 10.0858 14.25 10.5C14.25 10.9142 13.9142 11.25 13.5 11.25H11.25V13.5C11.25 13.9142 10.9142 14.25 10.5 14.25C10.0858 14.25 9.75 13.9142 9.75 13.5V11.25H7.5C7.08579 11.25 6.75 10.9142 6.75 10.5C6.75 10.0858 7.08579 9.75 7.5 9.75H9.75V7.5C9.75 7.08579 10.0858 6.75 10.5 6.75Z" fill="#0F172A"/>
</svg>

<svg viewBox="0 0 24 24" xmlns="http://www.w3.org/2000/svg"><path fill-rule="evenodd" d="M10.5 3.75v0c-3.73 0-6.75 3.02-6.75 6.75 0 3.72 3.02 6.75 6.75 6.75v0c3.72 0 6.75-3.03 6.75-6.75 0-3.73-3.03-6.75-6.75-6.75ZM2.25 10.5v0c0-4.56 3.69-8.25 8.25-8.25 4.55 0 8.24 3.69 8.24 8.25 -.01 1.92-.68 3.79-1.91 5.27l4.69 4.69h-.001c.3.28.31.75.03 1.06 -.29.3-.76.31-1.06.03 -.02-.02-.03-.03-.04-.04l-4.69-4.69v0c-3.51 2.91-8.71 2.44-11.62-1.06 -1.24-1.49-1.92-3.36-1.92-5.29Zm8.25-3.75v0c.41 0 .75.33.75.75v2.25h2.25v0c.41 0 .75.33.75.75 0 .41-.34.75-.75.75h-2.25v2.25 0c0 .41-.34.75-.75.75 -.42 0-.75-.34-.75-.75v-2.25H7.5v0c-.42 0-.75-.34-.75-.75 0-.42.33-.75.75-.75h2.25V7.5v0c0-.42.33-.75.75-.75Z"/></svg>
